X:1
T:Sonata 1, Siciliano
C:J.S.Bach
M:12/8
K:C
L:1/16
 _B,3D1F2 _E1D1C1_B,1[d2_b2] [F2d2_b2][c2a2][_B2g2] [_B2g2][A2f2]_E2 | 
 D2[c2f2][_B2g2] C2[A1_e1]c1[_B,2_B2d2] F2[_B1d1]f1_e1[_B1d1] [A2c2]A,2C2 | 
 F2[A1c1][G1_B1][A2c2] _E2[A2c2][D2=B2f2] C2[G1_e1][F1d1][_B,2G2_e2] A,1C1F1A/2c/2_e1g1 | 
 [D2_B2f2]_e1d1[_E1c1]_B1 [F2d2][_E/2c/2]d/2_e1[F2d2] [_B,3D3_B3]D1F2 _E1D1C1_B,1[d2_b2] | 
 [F2d2_b2][c1a1]_B1A2 G1^F1E1D1[c2a2] [G,2D2c2a2][_B1g1]G1F2 _E2[d2_b2][c2a2] | 
 D2[c1^f1]a1[_B2g2] D2[_B1g1]_b1[c2a2] D2[c1a1]_b1[d1_b1]c'1 [_e/2c'/2]_b/2a/2g/2^f/2e/2d/2c/2_B/2A/2_B/2c/2 | 
 ^F2d'1a1c'2 G1_b1a1^f1g1d1 [C2G2_e2]c1_E1G2 F1_E1D1C1[c2^g2] | 
 [D2c2^f2][_B1g1]d1[^F1_e1]d1 G1c1[C1G1_B1]A1[D1G1]^F1 ^A,/2D/2E/2^F/2G/2A/2_B/2c/2d/2c/2_e/2d/2 C2[D1c1]_B1A1G1 | 
 [G,3G3]_B,1D2 C1_B,1A,1G,1[G2_B2] [D2G2_B2][^F1A1]_E1D2 C1B,1A,1G,1[F2B2] | 
 [F2B2][_E1c1]C1D2 F1_E1D1C1[_e2c'2] [G2_e2c'2][d1_b1]D1G2 F1E1D1C1[e2_b2] | 
 [e2_b2][f1a1]F1f2 _e1d1c1_B1[d2_a2] [d2_a2][_e1g1]_B,1_E2 D1C1_B,1A,1[A2c2g2] | 
 [D2c2f2]G,1g1[_B2d2] [C2_B2_e2]F1c1[A2f2] [_B,1F1_e1]d1[G1_e1]d1[_E1c1]_B1 [F1_B1]A1c1_B1d1c1 | 
 [C2G2_e2]z1g1c'2 _b1a1g1f1[A,2F2_e2] [_B,2F2_e2]d1f1_b2 ^g1f1d1_B1[_B,2F2d2_a2] | 
 [_E1d1g1]_B1c1A1D1f1 c1A1_B1G1C1_e1 _B1G1A1F1_B,1d1 _E1d1g2f1_e1 | 
 [F2d2]c1A1c2 _B1A1G1F1[_E2c2] [D3c3f3]g1f2 [G,2D2B2f2]_e1d1c1B1 | 
 [C3G3_e3]f1_e2 [A,2F2_e2]d1c1_B1A1 [_B,1G1]F1[G,1_E1]D1[_E2_B2g2] [D2_B2f2][_E1_e1]c1[F2d2] | 
 [G1c1]_B1_e1_E1[F2d2] _E2g1_e1[D2_B2f2] [C3G3_B3e3]f1e2 [_B,1G1c1e1]g1f1e1d1c1 | 
 [A,3F3c3f3]d1_e2 F1c'1_b1a1g1f1 _e1d1[_E2A2g2][D2_B2f2] D/2_E/2F1d1_B1[_E2c2] | 
 [_B,2D2_B2]z1D1F2 _E1D1C1_B,1[d2_b2] [F2d2_b2][c1a1]A1c2 _B1A1G1F1[_e2a2] |  [_B,2F2_e2a2][d2_b2] |]
